src/assets/icons/icon-login-open.svg

<svg width="20px" height="23px" viewBox="0 0 20 23" version="1.1" xmlns="http://www.w3.org/2000/svg"
     xmlns:xlink="http://www.w3.org/1999/xlink">
    <g id="Welcome" stroke="none" stroke-width="1" fill="none" fill-rule="evenodd">
        <g id="Home" transform="translate(-194.000000, -663.000000)" fill="#FFFFFF" fill-rule="nonzero">
            <g id="icon-close" transform="translate(194.000000, 663.000000)">
                <g id="icon-login">
                    <path d="M10.625,21.203125 L3.5714286,21.203125 C2.5867857,21.203125 1.7857143,20.397047 1.7857143,19.40625 L1.7857143,12.039062 C1.7857143,11.048266 2.5867857,10.242188 3.5714286,10.242188 L16.4285714,10.242188 C17.4132143,10.242188 18.2142857,11.048266 18.2142857,12.039062 L18.2142857,13.835938 C18.2142857,14.332145 18.6140179,14.734375 19.1071429,14.734375 C19.6002679,14.734375 20,14.332145 20,13.835938 L20,12.039062 C20,10.057469 18.3978571,8.445312 16.4285714,8.445312 L15.3554911,8.445312 L15.3554911,5.276793 C15.3554911,2.367158 12.9522768,0 9.9983482,0 C7.0444196,0 4.6412054,2.367158 4.6412054,5.276793 L4.6412054,8.445312 L3.5714286,8.445312 C1.6021429,8.445312 -1.10134124e-13,10.057469 -1.10134124e-13,12.039062 L-1.10134124e-13,19.40625 C-1.10134124e-13,21.387844 1.6021429,23 3.5714286,23 L10.625,23 C11.118125,23 11.5178571,22.59777 11.5178571,22.101562 C11.5178571,21.605355 11.118125,21.203125 10.625,21.203125 Z M7,5.663932 C7,3.643628 8.3458,2 10,2 C11.6542,2 13,2.643628 13,4.663932 L15.3429565,4.663932 L15.3429565,8 L13,8 L7,8 L7,5.663932 Z"
                          id="login-copy"></path>
                </g>
            </g>
        </g>
    </g>
</svg>

<svg xmlns="http://www.w3.org/2000/svg" width="20" height="23">
    <path fill="#FFF" fill-rule="nonzero"
          d="M10.625 21.203H3.571a1.793 1.793 0 0 1-1.785-1.797V12.04c0-.99.8-1.797 1.785-1.797H16.43c.984 0 1.785.806 1.785 1.797v1.797c0 .496.4.898.893.898a.896.896 0 0 0 .893-.898v-1.797c0-1.982-1.602-3.594-3.571-3.594h-1.074V5.277C15.355 2.367 12.952 0 9.998 0S4.641 2.367 4.641 5.277v3.168h-1.07C1.602 8.445 0 10.057 0 12.04v7.367C0 21.388 1.602 23 3.571 23h7.054a.896.896 0 0 0 .893-.898c0-.497-.4-.899-.893-.899zM7 5.663C7 3.644 8.346 2 10 2s3 .644 3 2.664h2.343V8H7V5.664z"/>
</svg>
